public/cms/assets/img/svg/layers.svg

<svg width="24" height="24" viewBox="0 0 24 24" fill="none" xmlns="http://www.w3.org/2000/svg">
<path d="M12.9336 16.0724L19.36 10.9564L19.5182 10.8312C20.1676 10.3169 20.2772 9.3735 19.7629 8.72404C19.6917 8.63411 19.6104 8.55264 19.5206 8.48124L12.9337 3.24252C12.3871 2.80783 11.6129 2.80783 11.0663 3.24252L4.47482 8.48483C3.82645 9.00049 3.71886 9.94413 4.23452 10.5925C4.305 10.6811 4.38527 10.7615 4.47382 10.832L4.62999 10.9564L11.0659 16.073C11.6127 16.5077 12.3871 16.5074 12.9336 16.0724Z" fill="white"/>
<path opacity="0.3" fill-rule="evenodd" clip-rule="evenodd" d="M11.0564 18.6706L5.33594 14.1228C4.94555 13.8125 4.37748 13.8773 4.06711 14.2677C4.06473 14.2707 4.06236 14.2738 4.06001 14.2768C3.75258 14.6738 3.82518 15.2448 4.22216 15.5522C4.2236 15.5533 4.22504 15.5545 4.22649 15.5556L11.0873 20.8031C11.6251 21.2144 12.3718 21.2145 12.9096 20.8032L19.7678 15.5597C20.1693 15.2527 20.246 14.6784 19.939 14.2768C19.9377 14.2751 19.9363 14.2734 19.935 14.2717C19.6267 13.8743 19.0546 13.8021 18.6572 14.1104C18.6544 14.1126 18.6515 14.1149 18.6486 14.1172L12.9235 18.6704C12.377 19.1051 11.6029 19.1051 11.0564 18.6706Z" fill="white"/>
</svg>

<svg width="24" height="24" fill="none" xmlns="http://www.w3.org/2000/svg"><path d="M12.934 16.072l6.426-5.116.158-.125a1.5 1.5 0 00.003-2.35l-6.587-5.238a1.5 1.5 0 00-1.868 0L4.475 8.485a1.5 1.5 0 00-.001 2.347l.156.124 6.436 5.117a1.5 1.5 0 001.868 0z" fill="#fff"/><path opacity=".3" fill-rule="evenodd" clip-rule="evenodd" d="M11.056 18.67l-5.72-4.547a.903.903 0 00-1.269.145l-.007.009a.91.91 0 00.162 1.275l.004.004 6.861 5.247a1.5 1.5 0 001.823 0l6.858-5.243a.915.915 0 00.171-1.283l-.004-.005a.91.91 0 00-1.278-.162l-.008.007-5.726 4.553a1.5 1.5 0 01-1.867 0z" fill="#fff"/></svg>
